Newaita-dark/apps/24/kaddressbook.svg

<?xml version="1.0" encoding="UTF-8"?>
<svg xmlns="http://www.w3.org/2000/svg" xmlns:xlink="http://www.w3.org/1999/xlink" width="24pt" height="24pt" viewBox="0 0 24 24" version="1.1">
<defs>
<linearGradient id="linear0" gradientUnits="userSpaceOnUse" x1="254" y1="233.5" x2="254" y2="254.666672" gradientTransform="matrix(0.0468795,0,0,0.0468795,-0.0000028613,10.079089)">
<stop offset="0" style="stop-color:rgb(0%,0%,0%);stop-opacity:0.27451;"/>
<stop offset="1" style="stop-color:rgb(0%,0%,0%);stop-opacity:0;"/>
</linearGradient>
<radialGradient id="radial0" gradientUnits="userSpaceOnUse" cx="450.908936" cy="189.579361" fx="450.908936" fy="189.579361" r="21.166656" gradientTransform="matrix(0.000000130628,-0.0585994,-0.105479,-0.0000000761539,37.609564,47.696499)">
<stop offset="0" style="stop-color:rgb(0%,0%,0%);stop-opacity:0.313725;"/>
<stop offset="0.222222" style="stop-color:rgb(0%,0%,0%);stop-opacity:0.27451;"/>
<stop offset="1" style="stop-color:rgb(0%,0%,0%);stop-opacity:0;"/>
</radialGradient>
<radialGradient id="radial1" gradientUnits="userSpaceOnUse" cx="450.908936" cy="189.579361" fx="450.908936" fy="189.579361" r="21.166656" gradientTransform="matrix(-0.000000130628,0.0585994,0.105479,0.0000000761539,-13.794787,-5.64561)">
<stop offset="0" style="stop-color:rgb(0%,0%,0%);stop-opacity:0.313725;"/>
<stop offset="0.222222" style="stop-color:rgb(0%,0%,0%);stop-opacity:0.27451;"/>
<stop offset="1" style="stop-color:rgb(0%,0%,0%);stop-opacity:0;"/>
</radialGradient>
<radialGradient id="radial2" gradientUnits="userSpaceOnUse" cx="450.908936" cy="189.579361" fx="450.908936" fy="189.579361" r="21.166656" gradientTransform="matrix(-0.000000130628,-0.0585994,0.105479,-0.0000000761539,-13.794787,47.696499)">
<stop offset="0" style="stop-color:rgb(0%,0%,0%);stop-opacity:0.313725;"/>
<stop offset="0.222222" style="stop-color:rgb(0%,0%,0%);stop-opacity:0.27451;"/>
<stop offset="1" style="stop-color:rgb(0%,0%,0%);stop-opacity:0;"/>
</radialGradient>
<radialGradient id="radial3" gradientUnits="userSpaceOnUse" cx="450.908936" cy="189.579361" fx="450.908936" fy="189.579361" r="21.166656" gradientTransform="matrix(0.000000130628,0.0585994,-0.105479,0.0000000761539,37.609563,-5.64561)">
<stop offset="0" style="stop-color:rgb(0%,0%,0%);stop-opacity:0.313725;"/>
<stop offset="0.222222" style="stop-color:rgb(0%,0%,0%);stop-opacity:0.27451;"/>
<stop offset="1" style="stop-color:rgb(0%,0%,0%);stop-opacity:0;"/>
</radialGradient>
<linearGradient id="linear1" gradientUnits="userSpaceOnUse" x1="423.333344" y1="32.416664" x2="423.333344" y2="-105.166656" gradientTransform="matrix(1,0,0,1,0,0)">
<stop offset="0" style="stop-color:rgb(100%,94.509804%,46.27451%);stop-opacity:1;"/>
<stop offset="1" style="stop-color:rgb(100%,96.078431%,61.568627%);stop-opacity:1;"/>
</linearGradient>
<linearGradient id="linear2" gradientUnits="userSpaceOnUse" x1="423.333313" y1="-9.916655" x2="423.333344" y2="-105.166656" gradientTransform="matrix(1,0,0,1,-10.583313,137.583313)">
<stop offset="0" style="stop-color:rgb(25.882353%,64.705882%,96.078431%);stop-opacity:1;"/>
<stop offset="1" style="stop-color:rgb(39.215686%,70.980392%,96.470588%);stop-opacity:1;"/>
</linearGradient>
<linearGradient id="linear3" gradientUnits="userSpaceOnUse" x1="423.333313" y1="-9.916655" x2="423.333344" y2="-105.166656" gradientTransform="matrix(1,0,0,1,-10.583303,201.083313)">
<stop offset="0" style="stop-color:rgb(58.431373%,45.882353%,80.392157%);stop-opacity:1;"/>
<stop offset="1" style="stop-color:rgb(70.196078%,61.568627%,85.882353%);stop-opacity:1;"/>
</linearGradient>
<linearGradient id="linear4" gradientUnits="userSpaceOnUse" x1="306.916656" y1="-25.791676" x2="305.954559" y2="-141.414581" gradientTransform="matrix(0.0565122,0,0,0.163059,-4.39051,25.231011)">
<stop offset="0" style="stop-color:rgb(69.019608%,74.509804%,77.254902%);stop-opacity:1;"/>
<stop offset="1" style="stop-color:rgb(81.176471%,84.705882%,86.27451%);stop-opacity:1;"/>
</linearGradient>
<linearGradient id="linear5" gradientUnits="userSpaceOnUse" x1="165.484848" y1="-25.791672" x2="165.484848" y2="-141.414581" gradientTransform="matrix(4.556143,0,0,13.146184,-353.972656,2034.180176)">
<stop offset="0" style="stop-color:rgb(58.431373%,45.882353%,80.392157%);stop-opacity:1;"/>
<stop offset="1" style="stop-color:rgb(70.196078%,61.568627%,85.882353%);stop-opacity:1;"/>
</linearGradient>
<linearGradient id="linear6" gradientUnits="userSpaceOnUse" x1="960" y1="1455.118164" x2="960" y2="815.118103" gradientTransform="matrix(0.264583,0,0,0.264583,17.341581,-267.916412)">
<stop offset="0" style="stop-color:rgb(58.431373%,45.882353%,80.392157%);stop-opacity:1;"/>
<stop offset="1" style="stop-color:rgb(70.196078%,61.568627%,85.882353%);stop-opacity:1;"/>
</linearGradient>
</defs>
<g id="surface1">
<path style=" stroke:none;fill-rule:nonzero;fill:url(#linear0);" d="M 5.953125 21.027344 L 17.859375 21.027344 L 17.859375 22.019531 L 5.953125 22.019531 Z M 5.953125 21.027344 "/>
<path style=" stroke:none;fill-rule:nonzero;fill:url(#radial0);" d="M 17.859375 21.027344 L 19.84375 21.027344 L 19.84375 20.03125 L 17.859375 20.03125 Z M 17.859375 21.027344 "/>
<path style=" stroke:none;fill-rule:nonzero;fill:url(#radial1);" d="M 5.953125 21.027344 L 3.96875 21.027344 L 3.96875 22.019531 L 5.953125 22.019531 Z M 5.953125 21.027344 "/>
<path style=" stroke:none;fill-rule:nonzero;fill:url(#radial2);" d="M 5.953125 21.027344 L 3.96875 21.027344 L 3.96875 20.03125 L 5.953125 20.03125 Z M 5.953125 21.027344 "/>
<path style=" stroke:none;fill-rule:nonzero;fill:url(#radial3);" d="M 17.859375 21.027344 L 19.84375 21.027344 L 19.84375 22.019531 L 17.859375 22.019531 Z M 17.859375 21.027344 "/>
<path style="fill-rule:nonzero;fill:url(#linear1);stroke-width:3;stroke-linecap:round;stroke-linejoin:miter;stroke:rgb(12.941177%,12.941177%,12.941177%);stroke-opacity:1;stroke-miterlimit:4;" d="M 423.292911 -105.177154 C 429.209013 -105.177154 433.875234 -100.427608 433.875234 -94.594831 L 433.875234 21.810719 C 433.875234 27.643495 429.209013 32.393042 423.292911 32.393042 C 417.460135 32.393042 412.710588 27.643495 412.710588 21.810719 L 412.710588 -94.594831 C 412.710588 -100.427608 417.460135 -105.177154 423.292911 -105.177154 Z M 423.292911 -105.177154 " transform="matrix(0.0468795,0,0,0.0468795,0,10.079087)"/>
<path style="fill-rule:nonzero;fill:rgb(93.72549%,60.392157%,60.392157%);fill-opacity:1;stroke-width:3;stroke-linecap:round;stroke-linejoin:miter;stroke:rgb(12.941177%,12.941177%,12.941177%);stroke-opacity:1;stroke-miterlimit:4;" d="M 412.710588 -31.100895 L 423.292911 -31.100895 C 429.209013 -31.100895 433.875234 -26.351348 433.875234 -20.518572 L 433.875234 95.886978 C 433.875234 101.80308 429.209013 106.469301 423.292911 106.469301 L 412.710588 106.469301 C 406.877812 106.469301 402.128265 101.80308 402.128265 95.886978 L 402.128265 -20.518572 C 402.128265 -26.351348 406.877812 -31.100895 412.710588 -31.100895 Z M 412.710588 -31.100895 " transform="matrix(0.0468795,0,0,0.0468795,0,10.079087)"/>
<path style="fill-rule:nonzero;fill:url(#linear2);stroke-width:3;stroke-linecap:round;stroke-linejoin:miter;stroke:rgb(12.941177%,12.941177%,12.941177%);stroke-opacity:1;stroke-miterlimit:4;" d="M 412.710588 32.393042 L 423.292911 32.393042 C 429.209013 32.393042 433.875234 37.142588 433.875234 42.975365 L 433.875234 117.051624 C 433.875234 122.967726 429.209013 127.633947 423.292911 127.633947 L 412.710588 127.633947 C 406.877812 127.633947 402.128265 122.967726 402.128265 117.051624 L 402.128265 42.975365 C 402.128265 37.142588 406.877812 32.393042 412.710588 32.393042 Z M 412.710588 32.393042 " transform="matrix(0.0468795,0,0,0.0468795,0,10.079087)"/>
<path style="fill-rule:nonzero;fill:url(#linear3);stroke-width:3;stroke-linecap:round;stroke-linejoin:miter;stroke:rgb(12.941177%,12.941177%,12.941177%);stroke-opacity:1;stroke-miterlimit:4;" d="M 412.710588 95.886978 L 423.292911 95.886978 C 429.209013 95.886978 433.875234 100.636525 433.875234 106.469301 L 433.875234 180.545561 C 433.875234 186.461662 429.209013 191.127883 423.292911 191.127883 L 412.710588 191.127883 C 406.877812 191.127883 402.128265 186.461662 402.128265 180.545561 L 402.128265 106.469301 C 402.128265 100.636525 406.877812 95.886978 412.710588 95.886978 Z M 412.710588 95.886978 " transform="matrix(0.0468795,0,0,0.0468795,0,10.079087)"/>
<path style=" stroke:none;fill-rule:nonzero;fill:url(#linear4);" d="M 4.960938 2.171875 L 18.851562 2.171875 C 19.402344 2.171875 19.84375 2.617188 19.84375 3.164062 L 19.84375 20.03125 C 19.84375 20.582031 19.402344 21.027344 18.851562 21.027344 L 4.960938 21.027344 C 4.414062 21.027344 3.96875 20.582031 3.96875 20.03125 L 3.96875 3.164062 C 3.96875 2.617188 4.414062 2.171875 4.960938 2.171875 Z M 4.960938 2.171875 "/>
<path style="fill-rule:nonzero;fill:url(#linear5);stroke-width:11.338583;stroke-linecap:round;stroke-linejoin:miter;stroke:rgb(12.941177%,12.941177%,12.941177%);stroke-opacity:1;stroke-miterlimit:4;" d="M 399.961827 175.101398 C 355.556616 175.101398 319.969461 210.688553 319.969461 255.093763 L 319.969461 1614.963974 C 319.969461 1659.369184 355.556616 1695.27127 399.961827 1695.27127 L 519.950375 1695.27127 L 519.950375 175.101398 Z M 399.961827 175.101398 " transform="matrix(0.0124035,0,0,0.0124035,0,0)"/>
<path style=" stroke:none;fill-rule:nonzero;fill:rgb(0%,0%,0%);fill-opacity:0.196078;" d="M 4.960938 21.027344 C 4.410156 21.027344 3.96875 20.582031 3.96875 20.03125 L 3.96875 19.910156 C 3.96875 20.457031 4.410156 20.902344 4.960938 20.902344 L 18.851562 20.902344 C 19.402344 20.902344 19.84375 20.457031 19.84375 19.910156 L 19.84375 20.03125 C 19.84375 20.582031 19.402344 21.027344 18.851562 21.027344 Z M 4.960938 21.027344 "/>
<path style=" stroke:none;fill-rule:nonzero;fill:rgb(90.196079%,90.196079%,90.196079%);fill-opacity:0.937255;" d="M 4.960938 2.171875 C 4.410156 2.171875 3.96875 2.613281 3.96875 3.164062 L 3.96875 3.289062 C 3.96875 2.738281 4.410156 2.296875 4.960938 2.296875 L 18.851562 2.296875 C 19.402344 2.296875 19.84375 2.738281 19.84375 3.289062 L 19.84375 3.164062 C 19.84375 2.613281 19.402344 2.171875 18.851562 2.171875 Z M 4.960938 2.171875 "/>
<path style=" stroke:none;fill-rule:nonzero;fill:rgb(12.941177%,12.941177%,12.941177%);fill-opacity:1;" d="M 4.960938 2.101562 C 4.375 2.101562 3.898438 2.578125 3.898438 3.164062 L 3.898438 20.03125 C 3.898438 20.621094 4.375 21.097656 4.960938 21.097656 L 18.851562 21.097656 C 19.441406 21.097656 19.914062 20.621094 19.914062 20.03125 L 19.914062 3.164062 C 19.914062 2.578125 19.441406 2.101562 18.851562 2.101562 Z M 4.960938 2.242188 L 18.851562 2.242188 C 19.367188 2.242188 19.773438 2.652344 19.773438 3.164062 L 19.773438 20.03125 C 19.773438 20.546875 19.367188 20.957031 18.851562 20.957031 L 4.960938 20.957031 C 4.449219 20.957031 4.039062 20.546875 4.039062 20.03125 L 4.039062 3.164062 C 4.039062 2.652344 4.449219 2.242188 4.960938 2.242188 Z M 4.960938 2.242188 "/>
<path style="fill-rule:nonzero;fill:url(#linear6);stroke-width:3;stroke-linecap:round;stroke-linejoin:miter;stroke:rgb(12.941177%,12.941177%,12.941177%);stroke-opacity:1;stroke-miterlimit:4;" d="M 271.307425 -52.26554 C 250.809382 -52.26554 234.310958 -35.767116 234.310958 -15.185748 C 234.310958 5.312295 250.809382 21.810719 271.307425 21.810719 C 291.888793 21.810719 308.387217 5.312295 308.387217 -15.185748 C 308.387217 -35.767116 291.888793 -52.26554 271.307425 -52.26554 Z M 241.060313 27.310194 C 221.228874 35.30943 207.813488 51.141251 207.813488 69.472834 L 207.813488 106.469301 C 207.813488 112.385403 212.563035 117.051624 218.395811 117.051624 L 324.219039 117.051624 C 330.13514 117.051624 334.801361 112.385403 334.801361 106.469301 L 334.801361 69.472834 C 334.801361 51.141251 321.385976 35.30943 301.637862 27.310194 C 294.888506 36.809287 283.889557 42.975365 271.307425 42.975365 C 258.808618 42.975365 247.726343 36.809287 241.060313 27.310194 Z M 241.060313 27.310194 " transform="matrix(0.0468795,0,0,0.0468795,0,10.079087)"/>
</g>
</svg>

<svg xmlns="http://www.w3.org/2000/svg" width="32" height="32" viewBox="0 0 24 24"><defs><linearGradient id="a" gradientUnits="userSpaceOnUse" x1="254" y1="233.5" x2="254" y2="254.667" gradientTransform="matrix(.04688 0 0 .04688 0 10.08)"><stop offset="0" stop-opacity=".275"/><stop offset="1" stop-opacity="0"/></linearGradient><radialGradient id="b" gradientUnits="userSpaceOnUse" cx="450.909" cy="189.579" fx="450.909" fy="189.579" r="21.167" gradientTransform="matrix(0 -.0586 -.10548 0 37.61 47.696)"><stop offset="0" stop-opacity=".314"/><stop offset=".222" stop-opacity=".275"/><stop offset="1" stop-opacity="0"/></radialGradient><radialGradient id="c" gradientUnits="userSpaceOnUse" cx="450.909" cy="189.579" fx="450.909" fy="189.579" r="21.167" gradientTransform="matrix(0 .0586 .10548 0 -13.795 -5.646)"><stop offset="0" stop-opacity=".314"/><stop offset=".222" stop-opacity=".275"/><stop offset="1" stop-opacity="0"/></radialGradient><radialGradient id="d" gradientUnits="userSpaceOnUse" cx="450.909" cy="189.579" fx="450.909" fy="189.579" r="21.167" gradientTransform="matrix(0 -.0586 .10548 0 -13.795 47.696)"><stop offset="0" stop-opacity=".314"/><stop offset=".222" stop-opacity=".275"/><stop offset="1" stop-opacity="0"/></radialGradient><radialGradient id="e" gradientUnits="userSpaceOnUse" cx="450.909" cy="189.579" fx="450.909" fy="189.579" r="21.167" gradientTransform="matrix(0 .0586 -.10548 0 37.61 -5.646)"><stop offset="0" stop-opacity=".314"/><stop offset=".222" stop-opacity=".275"/><stop offset="1" stop-opacity="0"/></radialGradient><linearGradient id="f" gradientUnits="userSpaceOnUse" x1="423.333" y1="32.417" x2="423.333" y2="-105.167"><stop offset="0" stop-color="#fff176"/><stop offset="1" stop-color="#fff59d"/></linearGradient><linearGradient id="g" gradientUnits="userSpaceOnUse" x1="423.333" y1="-9.917" x2="423.333" y2="-105.167" gradientTransform="translate(-10.583 137.583)"><stop offset="0" stop-color="#42a5f5"/><stop offset="1" stop-color="#64b5f6"/></linearGradient><linearGradient id="h" gradientUnits="userSpaceOnUse" x1="423.333" y1="-9.917" x2="423.333" y2="-105.167" gradientTransform="translate(-10.583 201.083)"><stop offset="0" stop-color="#9575cd"/><stop offset="1" stop-color="#b39ddb"/></linearGradient><linearGradient id="i" gradientUnits="userSpaceOnUse" x1="306.917" y1="-25.792" x2="305.955" y2="-141.415" gradientTransform="matrix(.05651 0 0 .16306 -4.39 25.231)"><stop offset="0" stop-color="#b0bec5"/><stop offset="1" stop-color="#cfd8dc"/></linearGradient><linearGradient id="j" gradientUnits="userSpaceOnUse" x1="165.485" y1="-25.792" x2="165.485" y2="-141.415" gradientTransform="matrix(4.55614 0 0 13.14618 -353.973 2034.18)"><stop offset="0" stop-color="#9575cd"/><stop offset="1" stop-color="#b39ddb"/></linearGradient><linearGradient id="k" gradientUnits="userSpaceOnUse" x1="960" y1="1455.118" x2="960" y2="815.118" gradientTransform="matrix(.26458 0 0 .26458 17.342 -267.916)"><stop offset="0" stop-color="#9575cd"/><stop offset="1" stop-color="#b39ddb"/></linearGradient></defs><path d="M5.953 21.027H17.86v.993H5.953zm0 0" fill="url(#a)"/><path d="M17.86 21.027h1.984v-.996h-1.985zm0 0" fill="url(#b)"/><path d="M5.953 21.027H3.97v.993h1.984zm0 0" fill="url(#c)"/><path d="M5.953 21.027H3.97v-.996h1.984zm0 0" fill="url(#d)"/><path d="M17.86 21.027h1.984v.993h-1.985zm0 0" fill="url(#e)"/><path d="M423.293-105.177c5.916 0 10.582 4.75 10.582 10.582V21.811a10.544 10.544 0 0 1-10.582 10.582c-5.833 0-10.582-4.75-10.582-10.582V-94.595c0-5.833 4.75-10.582 10.582-10.582zm0 0" transform="matrix(.04688 0 0 .04688 0 10.08)" fill="url(#f)" stroke-width="3" stroke-linecap="round" stroke="#212121"/><path d="M19.348 8.621h.496c.277 0 .496.223.496.496v5.457a.492.492 0 0 1-.496.496h-.496a.494.494 0 0 1-.496-.496V9.117c0-.273.222-.496.496-.496zm0 0" fill="#ef9a9a" stroke-width=".14064" stroke-linecap="round" stroke="#212121"/><path d="M412.71 32.393h10.583c5.916 0 10.582 4.75 10.582 10.582v74.077c0 5.916-4.666 10.582-10.582 10.582H412.71a10.544 10.544 0 0 1-10.583-10.582V42.975c0-5.832 4.75-10.582 10.583-10.582zm0 0" transform="matrix(.04688 0 0 .04688 0 10.08)" fill="url(#g)" stroke-width="3" stroke-linecap="round" stroke="#212121"/><path d="M412.71 95.887h10.583c5.916 0 10.582 4.75 10.582 10.582v74.077c0 5.916-4.666 10.582-10.582 10.582H412.71a10.544 10.544 0 0 1-10.583-10.582v-74.077c0-5.832 4.75-10.582 10.583-10.582zm0 0" transform="matrix(.04688 0 0 .04688 0 10.08)" fill="url(#h)" stroke-width="3" stroke-linecap="round" stroke="#212121"/><path d="M4.96 2.172h13.892c.55 0 .992.445.992.992v16.867c0 .551-.442.996-.992.996H4.96a.994.994 0 0 1-.992-.996V3.164c0-.547.445-.992.992-.992zm0 0" fill="url(#i)"/><path d="M399.962 175.101c-44.405 0-79.993 35.588-79.993 79.993v1359.87c0 44.405 35.588 80.307 79.993 80.307H519.95V175.101zm0 0" transform="scale(.0124)" fill="url(#j)" stroke-width="11.339" stroke-linecap="round" stroke="#212121"/><path d="M4.96 21.027a.992.992 0 0 1-.991-.996v-.12c0 .546.441.991.992.991h13.89c.551 0 .993-.445.993-.992v.121c0 .551-.442.996-.992.996zm0 0" fill-opacity=".196"/><path d="M4.96 2.172a.989.989 0 0 0-.991.992v.125c0-.55.441-.992.992-.992h13.89c.551 0 .993.441.993.992v-.125a.989.989 0 0 0-.992-.992zm0 0" fill="#e6e6e6" fill-opacity=".937"/><path d="M4.96 2.102c-.585 0-1.062.476-1.062 1.062v16.867c0 .59.477 1.067 1.063 1.067h13.89c.59 0 1.063-.477 1.063-1.067V3.164c0-.586-.473-1.062-1.062-1.062zm0 .14h13.892c.515 0 .921.41.921.922v16.867a.917.917 0 0 1-.921.926H4.96a.92.92 0 0 1-.922-.926V3.164c0-.512.41-.922.922-.922zm0 0" fill="#212121"/><path d="M271.307-52.266c-20.498 0-36.996 16.499-36.996 37.08 0 20.498 16.498 36.997 36.996 36.997 20.582 0 37.08-16.499 37.08-36.997a36.949 36.949 0 0 0-37.08-37.08zM241.06 27.31c-19.831 8-33.247 23.831-33.247 42.163v36.996c0 5.916 4.75 10.583 10.583 10.583h105.823c5.916 0 10.582-4.667 10.582-10.583V69.473c0-18.332-13.415-34.164-33.163-42.163-6.75 9.5-17.748 15.665-30.33 15.665-12.5 0-23.582-6.166-30.248-15.665zm0 0" transform="matrix(.04688 0 0 .04688 0 10.08)" fill="url(#k)" stroke-width="3" stroke-linecap="round" stroke="#212121"/></svg>
